li/tech-watch.svg

<svg role="img" focusable="false" aria-hidden="true" xmlns="http://www.w3.org/2000/svg" viewBox="0 0 14 14" height="1em" width="1em">
  <path style="fill-rule:evenodd" d="m 7.6,6.4 0,-1.2 -1.2,0 0,1.8 0,0.6 2.4,0 0,-1.2 -1.2,0 z m 2.292451,3.645291 C 10.697857,9.280063 11.2,8.198672 11.2,7 11.2,5.801328 10.697857,4.719937 9.892451,3.954709 L 9.4,1 4.6,1 4.1075485,3.954709 C 3.302143,4.719937 2.8,5.801328 2.8,7 c 0,1.198672 0.502143,2.280063 1.3075485,3.045291 L 4.6,13 9.4,13 9.892451,10.045291 Z M 7,10 C 8.6568544,10 10,8.656854 10,7 10,5.343146 8.6568544,4 7,4 5.3431458,4 4,5.343146 4,7 c 0,1.656854 1.3431458,3 3,3 z"/>
</svg>

<svg aria-hidden="true" xmlns="http://www.w3.org/2000/svg" viewBox="0 0 14 14" height="1em" width="1em">
  <path style="fill-rule:evenodd" d="M7.6 6.4V5.2H6.4v2.4h2.4V6.4H7.6zm2.292 3.645A4.188 4.188 0 0 0 11.2 7c0-1.199-.502-2.28-1.308-3.045L9.4 1H4.6l-.492 2.955A4.188 4.188 0 0 0 2.8 7c0 1.199.502 2.28 1.308 3.045L4.6 13h4.8l.492-2.955ZM7 10a3 3 0 1 0 0-6 3 3 0 0 0 0 6z"/>
</svg>
